svgs/duotone/plug.svg

<svg xmlns="http://www.w3.org/2000/svg" viewBox="0 0 384 512"><!--! Font Awesome Pro 6.6.0 by @fontawesome - https://fontawesome.com License - https://fontawesome.com/license (Commercial License) Copyright 2024 Fonticons, Inc. --><path class="fa-secondary" style="fill:var(--fa-secondary-color,inherit);opacity:var(--fa-secondary-opacity,.4);" d="M64 32l0 128 64 0 0-128c0-17.7-14.3-32-32-32S64 14.3 64 32zm192 0l0 128 64 0 0-128c0-17.7-14.3-32-32-32s-32 14.3-32 32z"/><path class="fa-primary" style="fill:var(--fa-primary-color,inherit);opacity:var(--fa-primary-opacity,1);" d="M0 192c0-17.7 14.3-32 32-32l320 0c17.7 0 32 14.3 32 32s-14.3 32-32 32l0 32c0 77.4-55 142-128 156.8l0 67.2c0 17.7-14.3 32-32 32s-32-14.3-32-32l0-67.2C87 398 32 333.4 32 256l0-32c-17.7 0-32-14.3-32-32z"/></svg>

<svg xmlns="http://www.w3.org/2000/svg" viewBox="0 0 384 512"><!--! Font Awesome Pro 6.4.2 by @fontawesome - https://fontawesome.com License - https://fontawesome.com/license (Commercial License) Copyright 2023 Fonticons, Inc. --><path class="fa-primary" style="fill:var(--fa-primary-color,inherit);opacity:var(--fa-primary-opacity,1);" d="M0 192c0-17.7 14.3-32 32-32H352c17.7 0 32 14.3 32 32s-14.3 32-32 32v32c0 77.4-55 142-128 156.8V480c0 17.7-14.3 32-32 32s-32-14.3-32-32V412.8C87 398 32 333.4 32 256V224c-17.7 0-32-14.3-32-32z"/><path class="fa-secondary" style="fill:var(--fa-secondary-color,inherit);opacity:var(--fa-secondary-opacity,.4);" d="M128 32c0-17.7-14.3-32-32-32S64 14.3 64 32V160h64V32zm192 0c0-17.7-14.3-32-32-32s-32 14.3-32 32V160h64V32z"/></svg>
